svg/set/ZNC/WM.svg

<?xml version="1.0" encoding="UTF-8" standalone="no"?>
<svg
   width="356.91452"
   height="374.73074"
   viewBox="0 0 356.91452 374.73074"
   version="1.1"
   xml:space="preserve"
   style="clip-rule:evenodd;fill-rule:evenodd;stroke-linejoin:round;stroke-miterlimit:2"
   id="svg1"
   xmlns="http://www.w3.org/2000/svg"
   xmlns:svg="http://www.w3.org/2000/svg"
   xmlns:serif="http://www.serif.com/"><defs
   id="defs1" />
    <g
   id="path851"
   transform="matrix(0.264583,0,0,0.264583,-521.5222,-93.620842)">
        <g
   id="Layer-2"
   serif:id="Layer 2">
            <path
   id="path8511"
   serif:id="path851"
   d="m 2397.32,353.843 208.55,211.586 V 980.5 l -89.98,86.94 89.98,89.22 v 613.49 h -164 l -416.09,-400.89 133.63,-127.56 v -101.24 c -6.84,-91.44 -91.27,-123.1 -188.3,-184.254 37.69,-278.125 208.53,-456.382 426.21,-602.363 z m -245.6,964.267 -44.65,46.24 287.48,277.62 67.29,64.98 h 91.63 v -265.94 l -139.43,139.43 -189.4,-189.39 0.01,-0.01 z m 262.32,-737.999 -241.06,241.061 161,160.999 -78.21,78.209 78.21,78.21 -161,161 241.06,241.05 139.43,-139.43 V 1175.34 L 2437.7,1059.58 2553.47,943.81 V 719.54 Z m -0.07,129.17 112.5,112.495 -112.5,112.494 -112.49,-112.494 z m -0.94,43.085 -75.76,75.76 75.76,75.755 75.76,-75.755 z m 0.94,434.554 112.5,112.5 -112.5,112.49 -112.49,-112.49 z m -0.94,44.48 -75.76,75.75 75.76,75.76 75.76,-75.76 z m -22.89,-814.353 c -167.08,106.185 -323.9,284.16 -360.38,502.746 0.08,0.042 94.86,56.173 128.77,90.087 33.93,33.93 54.92,80.8 54.92,132.58 0,50.62 0.62,73.74 0.65,74.78 l 80.2,-80.21 -76.99,-76.99 78.34,-78.35 -160.14,-160.147 277.74,-277.734 140.22,140.215 V 578.76 Z m 503.73,-63.204 c 217.68,145.981 388.52,324.238 426.21,602.363 -97.03,61.154 -181.46,92.814 -188.3,184.254 v 101.24 l 133.63,127.56 -416.09,400.89 h -164 v -613.49 l 89.98,-89.22 -89.98,-86.94 V 565.429 Z m 7.18,63.204 -163.33,161.713 v 105.264 l 140.23,-140.215 277.73,277.734 -160.14,160.147 78.35,78.35 -77,76.99 80.21,80.21 c 0.02,-1.04 0.64,-24.16 0.64,-74.78 0,-51.78 20.99,-98.65 54.92,-132.58 33.92,-33.914 128.7,-90.045 128.77,-90.087 -36.48,-218.586 -193.3,-396.561 -360.38,-502.746 z m 238.42,901.063 -72.93,72.93 -189.4,189.4 -139.43,-139.43 v 265.94 h 91.63 l 67.29,-64.98 287.49,-277.62 z M 2877.15,580.111 2737.72,719.54 v 224.27 l 115.77,115.77 -115.77,115.76 v 225.87 l 139.43,139.43 241.06,-241.05 -161,-161 78.21,-78.21 -78.21,-78.209 161,-160.999 z m 0.07,129.17 112.48,112.495 -112.48,112.494 -112.5,-112.494 z m 0.94,43.085 -75.75,75.76 75.75,75.755 75.76,-75.755 z m -0.94,434.554 112.48,112.5 -112.48,112.49 -112.5,-112.49 z m 0.94,44.48 -75.75,75.75 75.75,75.76 75.76,-75.76 z" />
        </g>
    </g>
</svg>

<?xml version="1.0" encoding="UTF-8" standalone="no"?>
<!DOCTYPE svg PUBLIC "-//W3C//DTD SVG 1.1//EN" "http://www.w3.org/Graphics/SVG/1.1/DTD/svg11.dtd">
<svg width="100%" height="100%" viewBox="0 0 357 375" version="1.1" xmlns="http://www.w3.org/2000/svg" xmlns:xlink="http://www.w3.org/1999/xlink" xml:space="preserve" xmlns:serif="http://www.serif.com/" style="fill-rule:evenodd;clip-rule:evenodd;stroke-linejoin:round;stroke-miterlimit:2;">
    <g id="path851" transform="matrix(0.264583,0,0,0.264583,-521.524,-93.6211)">
        <g id="Layer-2" serif:id="Layer 2">
            <path id="path8511" serif:id="path851" d="M2397.32,353.843L2605.87,565.429L2605.87,980.5L2515.89,1067.44L2605.87,1156.66L2605.87,1770.15L2441.87,1770.15L2025.78,1369.26L2159.41,1241.7L2159.41,1140.46C2152.57,1049.02 2068.14,1017.36 1971.11,956.206C2008.8,678.081 2179.64,499.824 2397.32,353.843ZM2151.72,1318.11L2107.07,1364.35L2394.55,1641.97L2461.84,1706.95L2553.47,1706.95L2553.47,1441.01L2414.04,1580.44L2224.64,1391.05L2224.65,1391.04L2151.72,1318.11ZM2414.04,580.111L2172.98,821.172L2333.98,982.171L2255.77,1060.38L2333.98,1138.59L2172.98,1299.59L2414.04,1540.64L2553.47,1401.21L2553.47,1175.34L2437.7,1059.58L2553.47,943.81L2553.47,719.54L2414.04,580.111ZM2413.97,709.281L2526.47,821.776L2413.97,934.27L2301.48,821.776L2413.97,709.281ZM2413.03,752.366L2337.27,828.126L2413.03,903.881L2488.79,828.126L2413.03,752.366ZM2413.97,1186.92L2526.47,1299.42L2413.97,1411.91L2301.48,1299.42L2413.97,1186.92ZM2413.03,1231.4L2337.27,1307.15L2413.03,1382.91L2488.79,1307.15L2413.03,1231.4ZM2390.14,417.047C2223.06,523.232 2066.24,701.207 2029.76,919.793C2029.84,919.835 2124.62,975.966 2158.53,1009.88C2192.46,1043.81 2213.45,1090.68 2213.45,1142.46C2213.45,1193.08 2214.07,1216.2 2214.1,1217.24L2294.3,1137.03L2217.31,1060.04L2295.65,981.69L2135.51,821.543L2413.25,543.809L2553.47,684.024L2553.47,578.76L2390.14,417.047ZM2893.87,353.843C3111.55,499.824 3282.39,678.081 3320.08,956.206C3223.05,1017.36 3138.62,1049.02 3131.78,1140.46L3131.78,1241.7L3265.41,1369.26L2849.32,1770.15L2685.32,1770.15L2685.32,1156.66L2775.3,1067.44L2685.32,980.5L2685.32,565.429L2893.87,353.843ZM2901.05,417.047L2737.72,578.76L2737.72,684.024L2877.95,543.809L3155.68,821.543L2995.54,981.69L3073.89,1060.04L2996.89,1137.03L3077.1,1217.24C3077.12,1216.2 3077.74,1193.08 3077.74,1142.46C3077.74,1090.68 3098.73,1043.81 3132.66,1009.88C3166.58,975.966 3261.36,919.835 3261.43,919.793C3224.95,701.207 3068.13,523.232 2901.05,417.047ZM3139.47,1318.11L3066.54,1391.04L2877.14,1580.44L2737.71,1441.01L2737.71,1706.95L2829.34,1706.95L2896.63,1641.97L3184.12,1364.35L3139.47,1318.11ZM2877.15,580.111L2737.72,719.54L2737.72,943.81L2853.49,1059.58L2737.72,1175.34L2737.72,1401.21L2877.15,1540.64L3118.21,1299.59L2957.21,1138.59L3035.42,1060.38L2957.21,982.171L3118.21,821.172L2877.15,580.111ZM2877.22,709.281L2989.7,821.776L2877.22,934.27L2764.72,821.776L2877.22,709.281ZM2878.16,752.366L2802.41,828.126L2878.16,903.881L2953.92,828.126L2878.16,752.366ZM2877.22,1186.92L2989.7,1299.42L2877.22,1411.91L2764.72,1299.42L2877.22,1186.92ZM2878.16,1231.4L2802.41,1307.15L2878.16,1382.91L2953.92,1307.15L2878.16,1231.4Z"/>
        </g>
    </g>
</svg>
